X:1
T:Tell Me the Story of Jesus
C:John Robson Sweney (1837–1899)
Z:Terms:Public Domain
Z:Transcription:Converted on 2026-06-03 using nwctxt2abc from https://github.com/freehymns/translator
Z:Sources:The Cyber Hymnal(tm), from The Quiver of Sacred Song, by William J. Kirkpatrick & John R. Sweney (Philadelphia, Pennsylvania: John J. Hood, 1880), # 52.
I:score (1 2) (3 4)
I:voicecombine 1
L:1/1
M:4/4
Q:1/4=105
K:Eb
V:1 clef=treble stem=up
[M:4/4] G/4 G3/16 F/16 E/4 G3/16 A/16 | B/2 G/2 | \
w:A1 A2 A3 A4 A5 A6 A7 A8
B/4 F3/16 G/16 A/4 G3/16 F/16 | G | \
w:B1 B2 B3 B4 B5 B6 B7
G/4 G3/16 G/16 A/4 B3/16 c/16 | B/2 G/2 | \
w:C1 C2 C3 C4 C5 C6 C7 C8
B/4 F3/16 G/16 A/4 G3/16 F/16 | E | \
w:D1 D2 D3 D4 D5 D6 D7
c/4 c3/16 c/16 e/4 d3/16 c/16 | c/2 B/2 | \
w:E1 E2 E3 E4 E5 E6 E7 E8
B/4 c3/16 B/16 A/4 B3/16 A/16 | G | \
w:F1 F2 F3 F4 F5 F6 F7
c/4 c3/16 c/16 e/4 d3/16 c/16 | c/2 B/2 | \
w:G1 G2 G3 G4 G5 G6 G7 G8
B/4 F3/16 d/16 (d/8c/8) B3/16 =A/16 | (B/2 A/2) || \
w:H1 H2 H3 H4_ H5 H6 H7_
G/4 G3/16 F/16 E/4 G3/16 A/16 | B/2 G/2 | \
w:I1 I2 I3 I4 I5 I6 I7 I8
B/4 F3/16 G/16 A/4 G3/16 F/16 | G | \
w:J1 J2 J3 J4 J5 J6 J7
G/4 G3/16 G/16 A/4 B3/16 c/16 | B/2 G/2 | \
w:K1 K2 K3 K4 K5 K6 K7 K8
B/4 F3/16 G/16 A/4 G3/16 F/16 | E |]
w:L1 L2 L3 L4 L5 L6 L7
V:2 clef=treble stem=down
E/4 E3/16 E/16 E/4 E3/16 F/16 | G/2 E/2 | \
F/4 D3/16 E/16 F/4 E3/16 D/16 | E | \
E/4 E3/16 E/16 E/4 E3/16 E/16 | E/2 E/2 | \
F/4 D3/16 E/16 F/4 E3/16 D/16 | E | \
E/4 E3/16 E/16 E/4 E3/16 A/16 | A/2 G/2 | \
F/4 A3/16 G/16 F/4 D3/16 F/16 | E | \
E/4 E3/16 E/16 E/4 E3/16 A/16 | A/2 G/2 | \
F/4 D3/16 F/16 (F/8E/8) D3/16 E/16 | (D/2 F/2) || \
E/4 E3/16 E/16 E/4 E3/16 F/16 | G/2 E/2 | \
F/4 D3/16 E/16 F/4 E3/16 D/16 | E | \
E/4 E3/16 E/16 E/4 E3/16 E/16 | E/2 E/2 | \
F/4 D3/16 E/16 F/4 E3/16 D/16 | E |]
V:3 clef=bass stem=up
I:pos vocal above
[M:4/4] B,/4 B,3/16 A,/16 G,/4 B,3/16 B,/16 | E/2 B,/2 | \
D/4 B,3/16 B,/16 B,/4 B,3/16 B,/16 | B, | \
B,/4 B,3/16 B,/16 A,/4 G,3/16 A,/16 | G,/2 B,/2 | \
D/4 B,3/16 B,/16 B,/4 B,3/16 A,/16 | G, | \
A,/4 A,3/16 A,/16 C/4 C3/16 E/16 | E/2 E/2 | \
D/4 D3/16 B,/16 B,/4 B,3/16 B,/16 | B, | \
A,/4 A,3/16 A,/16 C/4 C3/16 E/16 | E/2 E/2 | \
D/4 B,3/16 B,/16 (B,/8=A,/8) B,3/16 C/16 | B, || \
B,/4 B,3/16 A,/16 G,/4 B,3/16 B,/16 | E/2 B,/2 | \
D/4 B,3/16 B,/16 B,/4 B,3/16 B,/16 | B, | \
B,/4 B,3/16 B,/16 A,/4 G,3/16 A,/16 | G,/2 B,/2 | \
D/4 B,3/16 B,/16 B,/4 B,3/16 A,/16 | G, |]
V:4 clef=bass stem=down
E,/4 E,3/16 E,/16 E,/4 E,3/16 E,/16 | E,/2 E,/2 | \
B,,/4 B,,3/16 B,,/16 B,,/4 B,,3/16 B,,/16 | E, | \
E,/4 _D,3/16 D,/16 C,/4 B,,3/16 A,,/16 | E,/2 E,/2 | \
B,,/4 B,,3/16 B,,/16 B,,/4 B,,3/16 B,,/16 | E, | \
x/4 x3/16 x/16A,/4 A,3/16 A,/16 | E,/2 E,/2 | \
B,,/4 B,,3/16 B,,/16 B,,/4 B,,3/16 B,,/16 | E, | \
x/4 x3/16 x/16A,/4 A,3/16 A,/16 | E,/2 E,/2 | \
F,/4 F,3/16 F,/16 F,/4 F,3/16 F,/16 | B,, || \
E,/4 E,3/16 E,/16 E,/4 E,3/16 E,/16 | E,/2 E,/2 | \
B,,/4 B,,3/16 B,,/16 B,,/4 B,,3/16 B,,/16 | E, | \
E,/4 _D,3/16 D,/16 C,/4 B,,3/16 A,,/16 | E,/2 E,/2 | \
B,,/4 B,,3/16 B,,/16 B,,/4 B,,3/16 B,,/16 | E, |]

